X: 87
T: Hollyhocks
C: words: Mary Black.
C: music: J. J.
N: Copyright, 1916, by the Cable Company.
%R: air, march
B: "The Everyday Song Book", 1927
F: http://www.library.pitt.edu/happybirthday/pdf/The_Everyday_Song_Book.pdf
Z: 2017 John Chambers <jc:trillian.mit.edu>
M: 4/4
L: 1/4
K: Eb
% - - - - - - - - - - - - - - - - - - - - - - - - - - - - -
[| E G E G | B e B2 | A2 F2 | G E E2 |
w: Hol-ly-hocks all slim and tall, Heigh-ho! Sum-mer oh!
%
[| E G E G | B e B2 | A2 F2 | G E E2 |
w: Blos-som by the gar-den wall, Heigh-ho! Sum-mer oh!
%
A F F F | G B B2 | A F F F | G B B2 |
w: Pink and white, and white and red, Gay and cheer-ful nods each head,
%
[| E G E G | B e c2 | B2 (c d) | e E E2 |]
w: Greet-ing lil-ies in their bed, Heigh-Ho!_ Sum-mer oh!
% - - - - - - - - - - - - - - - - - - - - - - - - - - - - -
